Yosa-Max-Dark/places/16x16/folder-desktop-symbolic.svg

<?xml version="1.0" encoding="UTF-8"?>
<svg id="svg2" version="1.1" viewBox="0 0 16 16" xmlns="http://www.w3.org/2000/svg">
 <defs id="defs4">
  <style id="current-color-scheme" type="text/css">.ColorScheme-Text {
        color:#dfdfdf;
      }</style>
 </defs>
 <path id="path820" d="m1 2v9 1 2h14v-2-1-9h-14zm1 9h12v1h-12v-1z" style="fill:#dfdfdf;stroke-width:1.0348829"/>
</svg>

<?xml version="1.0" encoding="UTF-8" standalone="no"?>
<svg
   xmlns:dc="http://purl.org/dc/elements/1.1/"
   xmlns:cc="http://creativecommons.org/ns#"
   xmlns:rdf="http://www.w3.org/1999/02/22-rdf-syntax-ns#"
   xmlns:svg="http://www.w3.org/2000/svg"
   xmlns="http://www.w3.org/2000/svg"
   xmlns:sodipodi="http://sodipodi.sourceforge.net/DTD/sodipodi-0.dtd"
   xmlns:inkscape="http://www.inkscape.org/namespaces/inkscape"
   viewBox="0 0 16 16"
   version="1.1"
   id="svg2"
   height="16"
   width="16"
   sodipodi:docname="folder-desktop-symbolic.svg"
   inkscape:version="0.92.4 (unknown)">
  <sodipodi:namedview
     pagecolor="#ffffff"
     bordercolor="#666666"
     borderopacity="1"
     objecttolerance="10"
     gridtolerance="10"
     guidetolerance="10"
     inkscape:pageopacity="0"
     inkscape:pageshadow="2"
     inkscape:window-width="1366"
     inkscape:window-height="709"
     id="namedview9"
     showgrid="false"
     inkscape:zoom="32.625"
     inkscape:cx="3.5402299"
     inkscape:cy="8.0613027"
     inkscape:window-x="0"
     inkscape:window-y="0"
     inkscape:window-maximized="1"
     inkscape:current-layer="svg2" />
  <defs
     id="defs4">
    <style
       type="text/css"
       id="current-color-scheme">
      .ColorScheme-Text {
        color:#dfdfdf;
      }
      </style>
  </defs>
  <metadata
     id="metadata7">
    <rdf:RDF>
      <cc:Work
         rdf:about="">
        <dc:format>image/svg+xml</dc:format>
        <dc:type
           rdf:resource="http://purl.org/dc/dcmitype/StillImage" />
        <dc:title />
      </cc:Work>
    </rdf:RDF>
  </metadata>
  <path
     style="fill:#dfdfdf;fill-opacity:1;stroke-width:1.0348829"
     d="M 1 2 L 1 11 L 1 12 L 1 14 L 15 14 L 15 12 L 15 11 L 15 2 L 1 2 z M 2 11 L 14 11 L 14 12 L 2 12 L 2 11 z "
     id="path820" />
</svg>
